src/assets/outline/MagicStar.svg

<?xml version="1.0" encoding="UTF-8"?>
<svg width="24" height="24" viewBox="0 0 24 24" xmlns="http://www.w3.org/2000/svg">
 <path d="m13.01 22.5c-0.6 0-1.53-0.29-2.42-1.75l-1.76-2.85c-0.17-0.28-0.69001-0.55-1.01-0.53l-3.34 0.17c-2 0.1-2.7-0.73-2.95-1.23s-0.47004-1.57 0.82996-3.09l1.98-2.3c0.2-0.24 0.30997-0.76 0.21997-1.06l-1.01-3.23c-0.51-1.62 0.06001-2.49 0.44001-2.87 0.37999-0.38 1.26-0.93002 2.88-0.39002l2.95 0.97001c0.27004 0.09 0.77004 0.01 1-0.15l3.08-2.22c1.41-1.02 2.4299-0.75 2.8999-0.5s1.27 0.93001 1.24 2.67l-0.07 3.79c-0.01 0.28 0.22 0.74001 0.44 0.91001l2.4801 1.88c1.35 1.03 1.4 2.06 1.31 2.59s-0.49 1.49-2.11 1.99l-3.2301 1.01c-0.3 0.09-0.67 0.48-0.75 0.78l-0.7699 2.94c-0.51 1.93-1.51 2.36-2.07 2.44-0.07 0.02-0.16 0.03-0.26 0.03zm-5.1601-6.63c0.86 0 1.81 0.52 2.25 1.24l1.76 2.85c0.5 0.82 0.95 1.07 1.19 1.03 0.23-0.03 0.5901-0.41 0.8401-1.33l0.7699-2.94c0.21-0.8 0.96-1.59 1.75-1.83l3.2301-1.01c0.62-0.19 1.0199-0.5 1.0799-0.82s-0.22-0.74-0.74-1.14l-2.4799-1.88c-0.61-0.45997-1.05-1.38-1.04-2.14l0.07-3.79c0.01-0.67-0.15-1.17-0.44-1.32s-0.78-2e-5 -1.33 0.38998l-3.0801 2.22c-0.61 0.44-1.6199 0.60002-2.3499 0.36002l-2.95-0.97c-0.62-0.2-1.12-0.19002-1.35 0.03998s-0.25005 0.73-0.06005 1.35l1.01 3.23c0.25 0.78998 0.02999 1.86-0.51001 2.48l-1.98 2.3c-0.63 0.73-0.73 1.24-0.62 1.45 0.1 0.21 0.58003 0.44 1.53 0.39l3.34-0.17c0.04 0.01 0.07998 0.01 0.10998 0.01z"/>
 <path d="m21.91 22.75c-0.19 0-0.3799-0.07-0.5299-0.22l-3.0301-3.03c-0.29-0.29-0.29-0.77 0-1.06s0.77-0.29 1.06 0l3.0301 3.03c0.29 0.29 0.29 0.77 0 1.06-0.15 0.15-0.3401 0.22-0.5301 0.22z"/>
</svg>

<svg width="24" height="24" viewBox="0 0 24 24"  xmlns="http://www.w3.org/2000/svg">
<path d="M13.0103 22.5005C12.4103 22.5005 11.4803 22.2105 10.5903 20.7505L8.83027 17.9005C8.66027 17.6205 8.14026 17.3505 7.82026 17.3705L4.48024 17.5405C2.48024 17.6405 1.78028 16.8105 1.53028 16.3105C1.28028 15.8105 1.06024 14.7405 2.36024 13.2205L4.34028 10.9205C4.54028 10.6805 4.65025 10.1605 4.56025 9.8605L3.55024 6.63052C3.04024 5.01052 3.61025 4.14053 3.99025 3.76053C4.37024 3.38053 5.25025 2.83051 6.87025 3.37051L9.82026 4.34052C10.0903 4.43052 10.5903 4.35052 10.8203 4.19052L13.9003 1.97052C15.3103 0.95052 16.3302 1.22052 16.8002 1.47052C17.2702 1.72052 18.0702 2.40053 18.0402 4.14053L17.9702 7.93051C17.9602 8.21051 18.1902 8.67052 18.4102 8.84052L20.8903 10.7205C22.2403 11.7505 22.2903 12.7805 22.2003 13.3105C22.1103 13.8405 21.7103 14.8005 20.0903 15.3005L16.8602 16.3105C16.5602 16.4005 16.1902 16.7905 16.1102 17.0905L15.3403 20.0305C14.8303 21.9605 13.8303 22.3905 13.2703 22.4705C13.2003 22.4905 13.1103 22.5005 13.0103 22.5005ZM7.85023 15.8705C8.71023 15.8705 9.66023 16.3905 10.1002 17.1105L11.8602 19.9605C12.3602 20.7805 12.8102 21.0305 13.0502 20.9905C13.2802 20.9605 13.6403 20.5805 13.8903 19.6605L14.6602 16.7205C14.8702 15.9205 15.6202 15.1305 16.4102 14.8905L19.6403 13.8805C20.2603 13.6905 20.6602 13.3805 20.7202 13.0605C20.7802 12.7405 20.5002 12.3205 19.9802 11.9205L17.5003 10.0405C16.8903 9.58053 16.4503 8.66051 16.4603 7.90051L16.5303 4.1105C16.5403 3.4405 16.3803 2.94053 16.0903 2.79053C15.8003 2.64053 15.3103 2.79051 14.7603 3.18051L11.6802 5.40051C11.0702 5.84051 10.0603 6.00053 9.33027 5.76053L6.38026 4.79053C5.76026 4.59053 5.26028 4.60051 5.03028 4.83051C4.80028 5.06051 4.78023 5.56051 4.97023 6.18051L5.98024 9.41052C6.23024 10.2005 6.01023 11.2705 5.47023 11.8905L3.49025 14.1905C2.86025 14.9205 2.76025 15.4305 2.87025 15.6405C2.97025 15.8505 3.45028 16.0805 4.40028 16.0305L7.74025 15.8605C7.78025 15.8705 7.82023 15.8705 7.85023 15.8705Z" />
<path d="M21.9098 22.7502C21.7198 22.7502 21.5299 22.6802 21.3799 22.5302L18.3498 19.5002C18.0598 19.2102 18.0598 18.7302 18.3498 18.4402C18.6398 18.1502 19.1198 18.1502 19.4098 18.4402L22.4399 21.4702C22.7299 21.7602 22.7299 22.2402 22.4399 22.5302C22.2899 22.6802 22.0998 22.7502 21.9098 22.7502Z" />
</svg>
